X: 17101
T: Heel And Toe, The
R: polka
M: 2/4
K: Dmajor
fg/f/ ed|cB B2|cA Bc|d2 dA|
|:FA A2|GB B2|cc/c/ Bc|de f2|
FA A2|GB B2|cc Bc|ed d2:|
|:fg/f/ ed|cB B2|cc Bc|de f2|
fg/f/ ed|cB B2|cc/c/ Bc|ed d2:|

